packages/foundations/assets/icons/functional/images/devices/camera_12.svg

<svg width="12" height="12" viewBox="0 0 12 12" fill="none" xmlns="http://www.w3.org/2000/svg">
<g clip-path="url(#clip0_231_172)">
<path fill-rule="evenodd" clip-rule="evenodd" d="M7.19995 2.39999C7.57766 2.39999 7.93333 2.57783 8.15995 2.87999L8.69995 3.59999H9.59995C10.2326 3.59999 10.8 4.17733 10.8 4.79999V8.39999C10.8 9.06274 10.2627 9.59999 9.59995 9.59999H2.39995C1.73721 9.59999 1.19995 9.06274 1.19995 8.39999V4.80356C1.19995 4.14221 1.73504 3.60553 2.39639 3.60356L3.29935 3.60059L3.83995 2.87999C4.04597 2.6053 4.45727 2.39999 4.79995 2.39999H7.19995ZM7.19995 3.59999H4.79995L3.90062 4.7991L2.39995 4.80356V8.39999H9.59995V4.79999H8.09995L7.19995 3.59999ZM5.99995 5.09999C6.66269 5.09999 7.19995 5.63725 7.19995 6.29999C7.19995 6.96274 6.66269 7.49999 5.99995 7.49999C5.33721 7.49999 4.79995 6.96274 4.79995 6.29999C4.79995 5.63725 5.33721 5.09999 5.99995 5.09999Z" fill="#1A1C1F"/>
</g>
<defs>
<clipPath id="clip0_231_172">
<rect width="12" height="12" fill="white"/>
</clipPath>
</defs>
</svg>

<svg xmlns="http://www.w3.org/2000/svg" width="12" height="12" fill="none"><g clip-path="url(#a)"><path fill="#1A1C1F" fill-rule="evenodd" d="M7.2 2.4a1.2 1.2 0 0 1 .96.48l.54.72h.9c.633 0 1.2.577 1.2 1.2v3.6a1.2 1.2 0 0 1-1.2 1.2H2.4a1.2 1.2 0 0 1-1.2-1.2V4.804a1.2 1.2 0 0 1 1.196-1.2L3.3 3.6l.541-.721a1.3 1.3 0 0 1 .96-.48zm0 1.2H4.8l-.9 1.2-1.5.004V8.4h7.2V4.8H8.1zM6 5.1a1.2 1.2 0 1 1 0 2.4 1.2 1.2 0 0 1 0-2.4" clip-rule="evenodd"/></g><defs><clipPath id="a"><path fill="#fff" d="M0 0h12v12H0z"/></clipPath></defs></svg>
